polaris-icons/icons/newicons/Column1Major.svg

<svg width="20" height="20" viewBox="0 0 20 20" fill="none" xmlns="http://www.w3.org/2000/svg">
<path fill-rule="evenodd" clip-rule="evenodd" d="M13 3.5H7C6.17157 3.5 5.5 4.17157 5.5 5V15C5.5 15.8284 6.17157 16.5 7 16.5H13C13.8284 16.5 14.5 15.8284 14.5 15V5C14.5 4.17157 13.8284 3.5 13 3.5ZM7 2C5.34315 2 4 3.34315 4 5V15C4 16.6569 5.34315 18 7 18H13C14.6569 18 16 16.6569 16 15V5C16 3.34315 14.6569 2 13 2H7Z" fill="black"/>
</svg>

<svg viewBox="0 0 20 20" fill="none" xmlns="http://www.w3.org/2000/svg"><path fill-rule="evenodd" clip-rule="evenodd" d="M13 3.5h-6a1.5 1.5 0 0 0-1.5 1.5v10a1.5 1.5 0 0 0 1.5 1.5h6a1.5 1.5 0 0 0 1.5-1.5v-10a1.5 1.5 0 0 0-1.5-1.5Zm-6-1.5a3 3 0 0 0-3 3v10a3 3 0 0 0 3 3h6a3 3 0 0 0 3-3v-10a3 3 0 0 0-3-3h-6Z" fill="#000"/></svg>
